X: 5850
T: Calliope House
R: jig
M: 6/8
K: Dmajor
|~a3 ~f3|~d3 def|g2g fgf|~e3 edB|A2A A2 F|
A2 B d2 e|1 f2f fed|e3 efg:|2 f2f edc|d3 dcB||
|:~A3 ~f3|~e3 fed|B2 e e2 d|e3 fed|A2 A A2 F|
A2 B d2 e|1 f2f fed|e3 dcB:|2 f2f edc|d3 d3||

